X: 19421
T: Jacks On The Mountain, The
R: jig
M: 6/8
K: Gmajor
ged BAG|EDE G2 D|EAA AGA|Bee def|
ged BAG|EDE G2 D|EAA AGA|dBG G2:|
GBd fga|ged e2 e|dBA ABA|
[1 BED D2 A|GBd fga|ged e2 e|dBA ABA|dBG G2:|
[2 BED D2 C|DGG GAB|dBd g2 e|dBA ABA|dBG G2||

